X: 23597
T: Lillias
R: jig
M: 6/8
K: Gmajor
|B3 ABc|BAG AGE|ADD BD(c|c2) B AGD|
B3 ABc|dcB AGE|ADD BD(c|1 c)GF G3:|2 cGF GBd||
|:g3 fga|gdB GBd|Ace a2g|f3 def|
g3 bge|fge dBG|ADD BD(c|c)GF G3:|

